dist/img/svg/power.svg

<svg width="14" height="20" viewBox="0 0 14 20" fill="none" xmlns="http://www.w3.org/2000/svg">
<path d="M8.34661 1.25245L6.9616 8.66928L12.0015 8.68885L5.15339 18.7476L6.5384 10.5871L1.49848 10.5675L8.34661 1.25245ZM8.34661 0C8.33379 0 8.32097 0 8.30814 0C8.29532 0 8.27608 0 8.25043 0C8.14784 0.0130463 8.05807 0.0391389 7.98112 0.0782779C7.90418 0.104371 7.81441 0.150033 7.71182 0.215264C7.62205 0.280496 7.53869 0.358774 7.46174 0.450098C7.44892 0.463144 7.4361 0.47619 7.42327 0.489237C7.42327 0.502283 7.41686 0.515329 7.40403 0.528376L0.498195 9.80431C0.203239 10.2218 0.171178 10.6588 0.402014 11.1155C0.440487 11.1937 0.485371 11.272 0.536668 11.3503C0.600789 11.4155 0.66491 11.4808 0.729031 11.546C0.805977 11.5982 0.882922 11.6438 0.959867 11.683C1.04964 11.7221 1.13941 11.7547 1.22918 11.7808C1.31895 11.7939 1.40871 11.8004 1.49848 11.8004L5.0572 11.82L3.92226 18.5323C3.87096 18.8193 3.91585 19.0868 4.05691 19.3346C4.19798 19.5956 4.39676 19.7847 4.65324 19.9022C4.73019 19.9413 4.80713 19.9674 4.88408 19.9804C4.97385 19.9935 5.06362 20 5.15339 20C5.52529 20 5.83948 19.8304 6.09596 19.4912L13.0018 9.43249C13.2968 9.015 13.3288 8.57795 13.098 8.12133C12.8672 7.66471 12.5017 7.4364 12.0015 7.4364H8.4428L9.5585 1.54599C9.57133 1.4938 9.57774 1.44814 9.57774 1.409C9.59056 1.35682 9.59698 1.30463 9.59698 1.25245C9.59698 1.13503 9.57774 1.02414 9.53927 0.919765C9.51362 0.815395 9.47515 0.717547 9.42385 0.626223C9.37255 0.534899 9.30843 0.450098 9.23149 0.37182C9.16736 0.293542 9.09042 0.22831 9.00065 0.176125C8.91088 0.12394 8.8147 0.084801 8.7121 0.0587084C8.60951 0.0195695 8.50692 0 8.40432 0C8.3915 0 8.37868 0 8.36585 0C8.36585 0 8.35944 0 8.34661 0Z" fill="#C78E66"/>
</svg>

<svg width="14" height="20" viewBox="0 0 14 20" fill="none" xmlns="http://www.w3.org/2000/svg"><path d="M8.347 1.252L6.962 8.67l5.04.02-6.849 10.059 1.385-8.16-5.04-.02 6.849-9.316zm0-1.252H8.25a.818.818 0 0 0-.269.078 1.3 1.3 0 0 0-.27.137 1.564 1.564 0 0 0-.249.235l-.038.04c0 .012-.006.025-.019.038L.498 9.804c-.295.418-.327.855-.096 1.312.038.078.083.156.135.234l.192.196c.077.052.154.098.23.137.09.04.18.072.27.098.09.013.18.02.27.02l3.558.019-1.135 6.712c-.051.287-.006.555.135.803.141.26.34.45.596.567.077.04.154.065.231.078.09.014.18.02.27.02.371 0 .685-.17.942-.509l6.906-10.059c.295-.417.327-.854.096-1.31-.23-.457-.596-.686-1.097-.686H8.444l1.116-5.89a.584.584 0 0 0 .019-.137.654.654 0 0 0 .019-.157A.954.954 0 0 0 9.54.92a1.163 1.163 0 0 0-.308-.548.844.844 0 0 0-.23-.196 1.12 1.12 0 0 0-.29-.116.858.858 0 0 0-.308-.06h-.058z" fill="#C78E66"/></svg>
